communes/5194.svg

<?xml version="1.0" encoding="UTF-8" standalone="no"?>
<svg
   xmlns:dc="http://purl.org/dc/elements/1.1/"
   xmlns:cc="http://creativecommons.org/ns#"
   xmlns:rdf="http://www.w3.org/1999/02/22-rdf-syntax-ns#"
   xmlns:svg="http://www.w3.org/2000/svg"
   xmlns="http://www.w3.org/2000/svg"
   xmlns:xlink="http://www.w3.org/1999/xlink"
   xmlns:sodipodi="http://sodipodi.sourceforge.net/DTD/sodipodi-0.dtd"
   xmlns:inkscape="http://www.inkscape.org/namespaces/inkscape"
   height="763"
   width="603"
   version="1.0"
   id="svg20"
   sodipodi:version="0.32"
   inkscape:version="0.46"
   sodipodi:docname="Manno-coat_of_arms.svg"
   sodipodi:docbase="C:\Documents and Settings\Steve\Bureau\Blason Villages Suisse pour Wikipédia (par Delta-9)"
   inkscape:output_extension="org.inkscape.output.svg.inkscape">
  <metadata
     id="metadata31">
    <rdf:RDF>
      <cc:Work
         rdf:about="">
        <dc:format>image/svg+xml</dc:format>
        <dc:type
           rdf:resource="http://purl.org/dc/dcmitype/StillImage" />
        <dc:date>07-AUG-2006</dc:date>
        <dc:creator>
          <cc:Agent>
            <dc:title>Jérôme BLUM (wagner51)</dc:title>
          </cc:Agent>
        </dc:creator>
        <cc:license
           rdf:resource="http://creativecommons.org/licenses/GPL/2.0/" />
        <dc:coverage />
        <dc:description>Gabarit pour le Projet:Blasons de WIkipédia</dc:description>
        <dc:subject>
          <rdf:Bag>
            <rdf:li>blason suisse modèle gabarit projet blasons</rdf:li>
          </rdf:Bag>
        </dc:subject>
        <dc:language>fr</dc:language>
        <dc:title>Gabrit d'un blason suisse</dc:title>
      </cc:Work>
      <cc:License
         rdf:about="http://creativecommons.org/licenses/GPL/2.0/">
        <cc:permits
           rdf:resource="http://web.resource.org/cc/Reproduction" />
        <cc:permits
           rdf:resource="http://web.resource.org/cc/Distribution" />
        <cc:requires
           rdf:resource="http://web.resource.org/cc/Notice" />
        <cc:permits
           rdf:resource="http://web.resource.org/cc/DerivativeWorks" />
        <cc:requires
           rdf:resource="http://web.resource.org/cc/ShareAlike" />
        <cc:requires
           rdf:resource="http://web.resource.org/cc/SourceCode" />
      </cc:License>
    </rdf:RDF>
  </metadata>
  <defs
     id="defs29"><inkscape:perspective
   sodipodi:type="inkscape:persp3d"
   inkscape:vp_x="0 : 381.5 : 1"
   inkscape:vp_y="0 : 1000 : 0"
   inkscape:vp_z="603 : 381.5 : 1"
   inkscape:persp3d-origin="301.5 : 254.33333 : 1"
   id="perspective28" />
<linearGradient
   id="linearGradient2893">
  <stop
     style="stop-color:#ffffff;stop-opacity:0.3137255;"
     offset="0"
     id="stop2895" />
  <stop
     id="stop2897"
     offset="0.19"
     style="stop-color:#ffffff;stop-opacity:0.25098041;" />
  <stop
     style="stop-color:#6b6b6b;stop-opacity:0.1254902;"
     offset="0.60000002"
     id="stop2901" />
  <stop
     style="stop-color:#000000;stop-opacity:0.1254902;"
     offset="1"
     id="stop2899" />
</linearGradient>
<linearGradient
   id="linearGradient2955">
  <stop
     style="stop-color:white;stop-opacity:0;"
     offset="0"
     id="stop2965" />
  <stop
     style="stop-color:black;stop-opacity:0.64583331;"
     offset="1"
     id="stop2959" />
</linearGradient>
<radialGradient
   inkscape:collect="always"
   xlink:href="#linearGradient2893"
   id="radialGradient3236"
   gradientUnits="userSpaceOnUse"
   gradientTransform="matrix(1.215027,1.531577e-24,1.464684e-23,1.266667,-839.1924,-490.4894)"
   cx="858.04236"
   cy="579.93323"
   fx="858.04236"
   fy="579.93323"
   r="300" />
<inkscape:perspective
   id="perspective2491"
   inkscape:persp3d-origin="306 : 264 : 1"
   inkscape:vp_z="612 : 396 : 1"
   inkscape:vp_y="0 : 1000 : 0"
   inkscape:vp_x="0 : 396 : 1"
   sodipodi:type="inkscape:persp3d" />

	
	
	
	
	
	
	
	
	
	
	
		
	
		

	
	
</defs>
  <sodipodi:namedview
     inkscape:window-height="691"
     inkscape:window-width="939"
     inkscape:pageshadow="2"
     inkscape:pageopacity="0.0"
     guidetolerance="10.0"
     gridtolerance="10.0"
     objecttolerance="10.0"
     borderopacity="1.0"
     bordercolor="#666666"
     pagecolor="#ffffff"
     id="base"
     inkscape:zoom="0.46444511"
     inkscape:cx="82.319988"
     inkscape:cy="416.82946"
     inkscape:window-x="1382"
     inkscape:window-y="128"
     inkscape:current-layer="layer1"
     showgrid="false"
     showguides="true"
     inkscape:guide-bbox="true">
    <sodipodi:guide
       orientation="horizontal"
       position="761.5"
       id="guide1885" />
    <sodipodi:guide
       orientation="vertical"
       position="1.5"
       id="guide1887" />
    <sodipodi:guide
       orientation="horizontal"
       position="1.5"
       id="guide1889" />
    <sodipodi:guide
       orientation="vertical"
       position="601.5"
       id="guide1891" />
    <sodipodi:guide
       orientation="vertical"
       position="301.50081"
       id="guide1893" />
  </sodipodi:namedview>
  <desc
     id="desc22">Coat of Arms of Canton of Freiburg (Fribourg)</desc>
  <g
     inkscape:groupmode="layer"
     id="layer1"
     inkscape:label="Fond écu"
     style="opacity:1"
     sodipodi:insensitive="true">
    <path
       style="opacity:1"
       d="M 1.5008062,1.5000001 L 1.5008062,460.368 C 1.5008062,626.679 135.81481,761.5 301.50081,761.5 C 467.18681,761.5 601.50081,626.679 601.50081,460.368 L 601.50081,1.5000001 L 1.5008062,1.5000001 z"
       id="path2590" />
    <path
       d="M 1.5008062,1.5000001 L 1.5008062,367 L 301.50081,367 L 301.50081,1.5000001 L 1.5008062,1.5000001 z M 301.50081,367 L 301.50081,758.723 L 342.25881,758.723 C 488.66181,738.758 601.50081,612.8 601.50081,460.368 L 601.50081,367 L 301.50081,367 z"
       id="path2516"
       style="opacity:1;fill:#e20909" />
  </g>
  <g
     inkscape:groupmode="layer"
     id="layer2"
     inkscape:label="Meubles"
     style="opacity:1"
     sodipodi:insensitive="true">
    <rect
       id="rect2472"
       height="91.375"
       width="300"
       y="367"
       x="301.50082"
       style="fill:#ffffff" />
    <path
       d="M 283.16781,273.5 C 283.16781,273.5 286.83481,226.833 268.83481,193.833 C 250.83481,160.833 219.50181,138.166 216.83481,138.166 C 214.16781,138.166 204.49981,153.5 214.16781,169.833 C 223.83581,186.166 232.50181,198.833 232.50181,198.833 C 232.50181,198.833 149.83481,121.166 139.50181,110.833 C 129.16881,100.5 112.16881,103.833 112.16881,120.5 C 103.00181,110.667 91.30681,110.781 85.556807,116.532 C 79.682807,122.407 80.710806,132.041 84.043806,135.375 C 80.876806,131.125 71.641806,134.711 69.126806,138 C 62.501806,146.667 64.504806,156.503 86.672807,182.735 C 86.672807,182.735 73.394806,175.083 67.439806,184.937 C 62.400806,193.274 65.001806,201.375 75.189806,211.562 C 85.377807,221.749 122.50281,262.166 143.83581,283.5 C 165.16881,304.834 193.83581,332.5 225.83581,329.167 C 225.83581,329.167 224.41881,340.917 250.50281,367 L 301.50281,367 L 301.50281,283.167 C 301.50081,283.167 288.83481,273.5 283.16781,273.5 z"
       id="path2489"
       style="fill:#ffffff;stroke:#000000;stroke-width:3;stroke-linecap:round;stroke-linejoin:round" />
    <path
       d="M 283.16781,273.5 C 283.16781,273.5 276.50081,281.5 268.50081,284.167"
       id="path2491"
       style="fill:none;stroke:#000000;stroke-width:3;stroke-linecap:round;stroke-linejoin:round" />
    <path
       d="M 237.50081,313.5 C 237.50081,313.5 233.16781,321.834 225.83381,329.167"
       id="path2493"
       style="fill:none;stroke:#000000;stroke-width:3;stroke-linecap:round;stroke-linejoin:round" />
    <path
       d="M 86.671806,182.735 C 97.65481,195.545 113.24081,211.241 132.12481,230.126"
       id="path2495"
       style="fill:none;stroke:#000000;stroke-width:3;stroke-linecap:round;stroke-linejoin:round" />
    <path
       d="M 150.37581,208.875 C 150.37581,208.875 102.62681,160.319 84.042807,135.375"
       id="path2497"
       style="fill:none;stroke:#000000;stroke-width:3;stroke-linecap:round;stroke-linejoin:round" />
    <path
       d="M 169.83381,183.833 C 169.83381,183.833 122.83381,131.166 112.16681,120.5"
       id="path2499"
       style="fill:none;stroke:#000000;stroke-width:3;stroke-linecap:round;stroke-linejoin:round" />
    <path
       d="M 224.06381,190.902 C 224.06381,190.902 186.50081,219 212.50081,269.5"
       id="path2501"
       style="fill:none;stroke:#000000;stroke-width:3;stroke-linecap:round;stroke-linejoin:round" />
    <path
       d="M 235.25081,248.5 C 235.25081,248.5 219.50081,223.608 235.25081,205.75 C 235.95281,204.955 234.61081,200.816 232.50081,198.833"
       id="path2503"
       style="fill:none;stroke:#000000;stroke-width:3;stroke-linecap:round;stroke-linejoin:round" />
    <path
       d="M 1.5008062,367 L 601.50081,367"
       id="path6594"
       style="fill:none;stroke:#000000;stroke-width:3;stroke-linejoin:bevel" />
    <line
       y2="761.5"
       x2="301.50082"
       y1="1.5"
       x1="301.50082"
       id="line2522"
       style="fill:none;stroke:#000000;stroke-width:3;stroke-linejoin:bevel" />
    <line
       id="line2484"
       y2="458.375"
       x2="601.50079"
       y1="458.375"
       x1="301.50082"
       style="fill:none;stroke:#000000;stroke-width:3;stroke-linejoin:bevel" />
  </g>
  <g
     inkscape:groupmode="layer"
     id="layer3"
     inkscape:label="Reflet final"
     style="display:inline"
     sodipodi:insensitive="true">
    <path
       style="fill:url(#radialGradient3236);fill-opacity:1"
       d="M 1.5,1.5 L 1.5,460.3679 C 1.5,626.67854 135.81454,761.5 301.49993,761.5 C 467.1854,761.5 601.5,626.67854 601.5,460.3679 L 601.5,1.5 L 1.5,1.5 z "
       id="path2346" />
  </g>
  <g
     inkscape:groupmode="layer"
     id="layer4"
     inkscape:label="Contour final"
     style="display:inline"
     sodipodi:insensitive="true">
    <path
       style="fill:none;fill-opacity:1;stroke:#000000;stroke-width:3;stroke-miterlimit:4;stroke-dasharray:none;stroke-opacity:1"
       d="M 1.5,1.5 L 1.5,460.36794 C 1.5,626.67854 135.81454,761.5 301.49993,761.5 C 467.1854,761.5 601.5,626.67854 601.5,460.36794 L 601.5,1.5 L 1.5,1.5 z "
       id="path3239" />
  </g>
</svg>

<?xml version="1.0" encoding="UTF-8"?>
<svg version="1.0" viewBox="0 0 603 763" xmlns="http://www.w3.org/2000/svg" xmlns:cc="http://creativecommons.org/ns#" xmlns:dc="http://purl.org/dc/elements/1.1/" xmlns:rdf="http://www.w3.org/1999/02/22-rdf-syntax-ns#" xmlns:xlink="http://www.w3.org/1999/xlink">
<metadata>
<rdf:RDF>
<cc:Work rdf:about="">
<dc:format>image/svg+xml</dc:format>
<dc:type rdf:resource="http://purl.org/dc/dcmitype/StillImage"/>
<dc:date>07-AUG-2006</dc:date>
<dc:creator>
<cc:Agent>
<dc:title>Jérôme BLUM (wagner51)</dc:title>
</cc:Agent>
</dc:creator>
<cc:license rdf:resource="http://creativecommons.org/licenses/GPL/2.0/"/>
<dc:coverage/>
<dc:description>Gabarit pour le Projet:Blasons de WIkipédia</dc:description>
<dc:subject>
<rdf:Bag>
<rdf:li>blason suisse modèle gabarit projet blasons</rdf:li>
</rdf:Bag>
</dc:subject>
<dc:language>fr</dc:language>
<dc:title>Gabrit d'un blason suisse</dc:title>
</cc:Work>
<cc:License rdf:about="http://creativecommons.org/licenses/GPL/2.0/">
<cc:permits rdf:resource="http://web.resource.org/cc/Reproduction"/>
<cc:permits rdf:resource="http://web.resource.org/cc/Distribution"/>
<cc:requires rdf:resource="http://web.resource.org/cc/Notice"/>
<cc:permits rdf:resource="http://web.resource.org/cc/DerivativeWorks"/>
<cc:requires rdf:resource="http://web.resource.org/cc/ShareAlike"/>
<cc:requires rdf:resource="http://web.resource.org/cc/SourceCode"/>
</cc:License>
</rdf:RDF>
</metadata>
<defs>
<radialGradient id="a" cx="858.04" cy="579.93" r="300" gradientTransform="matrix(1.215 1.5316e-24 1.4647e-23 1.2667 -839.19 -490.49)" gradientUnits="userSpaceOnUse">
<stop stop-color="#fff" stop-opacity=".31373" offset="0"/>
<stop stop-color="#fff" stop-opacity=".25098" offset=".19"/>
<stop stop-color="#6b6b6b" stop-opacity=".12549" offset=".6"/>
<stop stop-opacity=".12549" offset="1"/>
</radialGradient>
</defs>
<desc>Coat of Arms of Canton of Freiburg (Fribourg)</desc>
<g>
<path d="m1.5008 1.5v458.87c0 166.31 134.31 301.13 300 301.13s300-134.82 300-301.13v-458.87h-600z"/>
<path d="m1.5008 1.5v365.5h300v-365.5h-300zm300 365.5v391.72h40.758c146.4-19.965 259.24-145.92 259.24-298.36v-93.368h-300z" fill="#e20909"/>
<rect x="301.5" y="367" width="300" height="91.375" fill="#fff"/>
<path d="m283.17 273.5s3.667-46.667-14.333-79.667-49.333-55.667-52-55.667-12.335 15.334-2.667 31.667 18.334 29 18.334 29-82.667-77.667-93-88-27.333-7-27.333 9.667c-9.167-9.833-20.862-9.719-26.612-3.968-5.874 5.875-4.846 15.509-1.513 18.843-3.167-4.25-12.402-0.664-14.917 2.625-6.625 8.667-4.622 18.503 17.546 44.735 0 0-13.278-7.652-19.233 2.202-5.039 8.337-2.438 16.438 7.75 26.625 10.188 10.187 47.313 50.604 68.646 71.938s50 49 82 45.667c0 0-1.417 11.75 24.667 37.833h51v-83.833c-2e-3 0-12.668-9.667-18.335-9.667z" fill="#fff" stroke="#000" stroke-linecap="round" stroke-linejoin="round" stroke-width="3"/>
<path d="m283.17 273.5s-6.667 8-14.667 10.667" fill="none" stroke="#000" stroke-linecap="round" stroke-linejoin="round" stroke-width="3"/>
<path d="m237.5 313.5s-4.333 8.334-11.667 15.667" fill="none" stroke="#000" stroke-linecap="round" stroke-linejoin="round" stroke-width="3"/>
<path d="m86.672 182.74c10.983 12.81 26.569 28.506 45.453 47.391" fill="none" stroke="#000" stroke-linecap="round" stroke-linejoin="round" stroke-width="3"/>
<path d="m150.38 208.88s-47.749-48.556-66.333-73.5" fill="none" stroke="#000" stroke-linecap="round" stroke-linejoin="round" stroke-width="3"/>
<path d="m169.83 183.83s-47-52.667-57.667-63.333" fill="none" stroke="#000" stroke-linecap="round" stroke-linejoin="round" stroke-width="3"/>
<path d="m224.06 190.9s-37.563 28.098-11.563 78.598" fill="none" stroke="#000" stroke-linecap="round" stroke-linejoin="round" stroke-width="3"/>
<path d="m235.25 248.5s-15.75-24.892 0-42.75c0.702-0.795-0.64-4.934-2.75-6.917" fill="none" stroke="#000" stroke-linecap="round" stroke-linejoin="round" stroke-width="3"/>
<path d="m1.5008 367h600" fill="none" stroke="#000" stroke-linejoin="bevel" stroke-width="3"/>
<line x1="301.5" x2="301.5" y1="1.5" y2="761.5" fill="none" stroke="#000" stroke-linejoin="bevel" stroke-width="3"/>
<line x1="301.5" x2="601.5" y1="458.38" y2="458.38" fill="none" stroke="#000" stroke-linejoin="bevel" stroke-width="3"/>
</g>
<g>
<path d="m1.5 1.5v458.87c0 166.31 134.31 301.13 300 301.13 165.69 0 300-134.82 300-301.13v-458.87h-600z" fill="url(#a)"/>
<path d="m1.5 1.5v458.87c0 166.31 134.31 301.13 300 301.13 165.69 0 300-134.82 300-301.13v-458.87h-600z" fill="none" stroke="#000" stroke-width="3"/>
</g>
</svg>
